symbolic/24x24/apps/com.github.junrrein.PDFSlicer.svg

<svg xmlns="http://www.w3.org/2000/svg" width="24" height="24" x="0" y="0" version="1.1" xml:space="preserve">
 <path style="opacity:0.2" d="M 15.5,2.5 C 13.567003,2.5 12,4.0670034 12,6 c 9.57e-4,0.8085705 0.28184,1.5918695 0.794922,2.2167969 l -0.75,1.3066406 0.002,0.00195 L 9.0625,14.722656 C 8.7667345,15.237887 5.2854508,21.115384 7.6699219,22.5 l 2.6816401,-4.671875 4.001954,-6.970703 0.789062,-1.3789064 C 15.261274,9.4917696 15.380571,9.49894 15.5,9.5 17.432997,9.5 19,7.9329966 19,6 19,4.0670034 17.432997,2.5 15.5,2.5 Z"/>
 <path style="fill:#85a433" d="M 15.5,2 C 17.432997,2 19,3.5670034 19,5.5 19,7.4329966 17.432997,9 15.5,9 15.380571,8.99894 15.261274,8.99177 15.142578,8.978516 l -0.789062,1.378906 -2.308594,-1.3339845 0.75,-1.3066406 C 12.28184,7.0918695 12.000957,6.3085705 12,5.5 12,3.5670034 13.567003,2 15.5,2 Z"/>
 <path style="fill:#b3b3b7" d="M 12.046875,9.0253906 9.0625,14.222656 C 8.7667345,14.737887 5.2854508,20.615384 7.6699219,22 l 2.6816401,-4.671875 4.001954,-6.970703 z m 2.306641,1.3320314 z"/>
 <path style="opacity:0.2" d="M 7.5,2.5 C 5.5670034,2.5 4,4.0670034 4,6 4,7.9329966 5.5670034,9.5 7.5,9.5 7.6194292,9.49894 7.7387259,9.49177 7.8574219,9.478516 l 0.7890625,1.378906 h 0.00195 L 12.650391,17.828125 15.332031,22.5 c 2.384471,-1.384615 -1.096813,-7.262113 -1.392578,-7.777344 l -2.984375,-5.1992185 -0.75,-1.3066406 C 10.71816,7.5918695 10.999043,6.8085705 11,6 11,4.0670034 9.4329966,2.5 7.5,2.5 Z"/>
 <path style="fill:#9fd022" d="M 7.5 2 C 5.5670034 2 4 3.5670034 4 5.5 C 4 7.4329966 5.5670034 9 7.5 9 C 7.6194292 8.9989415 7.7387259 8.9917707 7.8574219 8.9785156 L 8.6464844 10.357422 L 10.955078 9.0234375 L 10.205078 7.7167969 C 10.71816 7.0918695 10.999043 6.3085705 11 5.5 C 11 3.5670034 9.4329966 2 7.5 2 z"/>
 <path style="opacity:0.2" d="m 7.4980469,4.500212 c -0.259278,0 -0.5155288,0.06854 -0.7460938,0.2011719 C 6.0330188,5.1149195 5.7854079,6.0346965 6.2011719,6.7521651 6.4022019,7.0991481 6.7275312,7.3465302 7.1152344,7.4494308 7.5003781,7.5516006 7.9025447,7.4977091 8.2480469,7.2990401 8.967025,6.8855045 9.2145926,5.9657268 8.7988281,5.2482589 8.5977987,4.9012758 8.2724676,4.6538932 7.8847656,4.5509932 7.7566878,4.5169653 7.6272089,4.500212 7.4980469,4.500212 Z m 8.0000001,0 c -0.259278,0 -0.515528,0.06854 -0.746094,0.2011719 -0.718934,0.4135355 -0.966545,1.3333127 -0.550781,2.0507812 0.20103,0.346983 0.526359,0.5943645 0.914062,0.6972657 0.385144,0.1021694 0.78731,0.048278 1.132813,-0.1503907 C 16.967024,6.8855046 17.214593,5.9657262 16.798828,5.2482589 16.597799,4.9012758 16.272468,4.6538932 15.884766,4.5509932 15.756689,4.5169653 15.627209,4.500212 15.498047,4.500212 Z"/>
 <path style="fill:#ffffff" d="M 7.1150525,6.9492281 C 6.7273493,6.8463275 6.4030572,6.5985929 6.2020272,6.2516099 5.7862632,5.5341413 6.0329208,4.613966 6.7518551,4.2004304 6.9824201,4.0677983 7.2384024,4 7.4976804,4 7.6268424,4 7.7568714,4.016842 7.8849492,4.05087 8.2726512,4.15377 8.5969446,4.4015051 8.797974,4.7484882 9.2137385,5.4659561 8.9670815,6.3860897 8.2481034,6.7996253 7.9026012,6.9982943 7.5001962,7.0513979 7.1150525,6.9492281 Z"/>
 <path style="fill:#d8d9dd" d="M 10.955078 9.0234375 L 8.6484375 10.357422 L 12.650391 17.328125 L 15.332031 22 C 17.716502 20.615385 14.235218 14.737887 13.939453 14.222656 L 10.955078 9.0234375 z"/>
 <ellipse style="fill:#808083" cx="11.5" cy="12.5" rx="1" ry="1"/>
 <polygon style="opacity:0.3" transform="matrix(0.05148801,0,0,0.0513031,-0.41072028,0.193258)" points="234.86 239.88 241.04 233.66 237.5 230.14 231.33 236.34 225.16 230.14 221.62 233.66 227.8 239.88 221.62 246.1 225.16 249.63 231.33 243.43 237.5 249.63 241.04 246.1"/>
 <path style="fill:#ffffff" d="M 15.115053,6.9492284 C 14.72735,6.8463272 14.403057,6.5985933 14.202027,6.2516103 13.786263,5.5341418 14.032921,4.6139666 14.751855,4.2004311 c 0.230566,-0.132632 0.486547,-0.2004304 0.745825,-0.2004304 0.129162,0 0.259192,0.016842 0.387269,0.05087 0.387702,0.1029 0.711996,0.3506351 0.913025,0.6976182 0.415765,0.7174673 0.169107,1.6376008 -0.54987,2.0511363 -0.345503,0.198669 -0.747907,0.2517726 -1.133051,0.1496032 z"/>
 <path style="fill:#ffffff;opacity:0.1" d="M 15.5 2 C 13.567003 2 12 3.5670034 12 5.5 C 12.000106 5.5895508 12.016529 5.676875 12.023438 5.765625 C 12.146264 3.9440884 13.647324 2.5 15.5 2.5 C 17.347308 2.5 18.844095 3.9359575 18.974609 5.75 C 18.980663 5.6658545 19 5.5856885 19 5.5 C 19 3.5670034 17.432997 2 15.5 2 z M 12.638672 7.9882812 L 12.044922 9.0234375 L 12.259766 9.1484375 L 12.794922 8.2167969 C 12.735872 8.1448747 12.691498 8.0641959 12.638672 7.9882812 z"/>
 <path style="fill:#ffffff;opacity:0.2" d="M 7.5 2 C 5.5670034 2 4 3.5670034 4 5.5 C 4 5.5856885 4.0193366 5.6658545 4.0253906 5.75 C 4.1559051 3.9359575 5.6526919 2.5 7.5 2.5 C 9.352676 2.5 10.853736 3.9440884 10.976562 5.765625 C 10.983471 5.676875 10.999894 5.5895508 11 5.5 C 11 3.5670034 9.4329966 2 7.5 2 z M 10.361328 7.9882812 C 10.308502 8.0641959 10.264128 8.1448747 10.205078 8.2167969 L 10.740234 9.1484375 L 10.955078 9.0234375 L 10.361328 7.9882812 z"/>
</svg>

<svg xmlns="http://www.w3.org/2000/svg" width="24" height="24" xml:space="preserve"><path style="opacity:.2" d="M15.5 2.5A3.5 3.5 0 0 0 12 6a3.5 3.5 0 0 0 .795 2.217l-.75 1.306.002.002-2.985 5.198c-.295.515-3.777 6.392-1.392 7.777l2.682-4.672 4.002-6.97.789-1.38a3.5 3.5 0 0 0 .357.022 3.5 3.5 0 1 0 0-7z"/><path style="fill:#85a433" d="M15.5 2a3.5 3.5 0 1 1 0 7 3.5 3.5 0 0 1-.357-.021l-.79 1.378-2.308-1.334.75-1.306A3.5 3.5 0 0 1 12 5.5 3.5 3.5 0 0 1 15.5 2z"/><path style="fill:#b3b3b7" d="m12.047 9.025-2.985 5.198c-.295.515-3.777 6.392-1.392 7.777l2.682-4.672 4.002-6.97zm2.307 1.332z"/><path style="opacity:.2" d="M7.5 2.5a3.5 3.5 0 0 0 0 7 3.5 3.5 0 0 0 .357-.021l.79 1.378h.001l4.002 6.971 2.682 4.672c2.385-1.385-1.097-7.262-1.393-7.777l-2.984-5.2-.75-1.306A3.5 3.5 0 0 0 11 6a3.5 3.5 0 0 0-3.5-3.5z"/><path style="fill:#9fd022" d="M7.5 2a3.5 3.5 0 0 0 0 7 3.5 3.5 0 0 0 .357-.021l.79 1.378 2.308-1.334-.75-1.306A3.5 3.5 0 0 0 11 5.5 3.5 3.5 0 0 0 7.5 2z"/><path style="opacity:.2" d="M7.498 4.5a1.5 1.5 0 1 0 .003 3.003A1.5 1.5 0 0 0 7.498 4.5zm8 0a1.5 1.5 0 1 0 .003 3.003 1.5 1.5 0 0 0-.003-3.003z"/><path style="fill:#fff" d="M7.115 6.95a1.5 1.5 0 1 1 .77-2.898 1.5 1.5 0 0 1-.77 2.897z"/><path style="fill:#d8d9dd" d="m10.955 9.023-2.307 1.334 4.002 6.971L15.332 22c2.385-1.385-1.097-7.262-1.393-7.777l-2.984-5.2z"/><circle style="fill:#808083" cx="11.5" cy="12.5" r="1"/><path style="opacity:.3" transform="matrix(.05149 0 0 .0513 -.41 .193)" d="m234.86 239.88 6.18-6.22-3.54-3.52-6.17 6.2-6.17-6.2-3.54 3.52 6.18 6.22-6.18 6.22 3.54 3.53 6.17-6.2 6.17 6.2 3.54-3.53z"/><path style="fill:#fff" d="M15.115 6.95a1.5 1.5 0 1 1 .77-2.898 1.5 1.5 0 0 1-.77 2.897z"/><path style="fill:#fff;opacity:.1" d="M15.5 2A3.5 3.5 0 0 0 12 5.5c0 .09.017.177.023.266A3.49 3.49 0 0 1 15.5 2.5a3.49 3.49 0 0 1 3.475 3.25c.006-.084.025-.164.025-.25A3.5 3.5 0 0 0 15.5 2zm-2.861 5.988-.594 1.035.215.125.535-.931c-.06-.072-.104-.153-.156-.229z"/><path style="fill:#fff;opacity:.2" d="M7.5 2A3.5 3.5 0 0 0 4 5.5c0 .086.02.166.025.25A3.49 3.49 0 0 1 7.5 2.5a3.49 3.49 0 0 1 3.477 3.266c.006-.09.023-.176.023-.266A3.5 3.5 0 0 0 7.5 2zm2.861 5.988c-.052.076-.097.157-.156.229l.535.931.215-.125-.594-1.035z"/></svg>
